X:1
T:Hangman's Reel
L:1/8
R:reel
M:C|
K:A
E2 \
|: "A"A2A2 "E"B2B2 | "A"cBAc "E"BAFG | "A"AGAc "E"BABd | "A"cBAc "E"B4 |
   "A"A2A2 "E"B2B2 | "A"cBAc "E"B2AB | "A"cBAc "E"BAFG |\
  [1 "A"A3B A2E2 :|[2 "A"A3B A4 ||
|| "A"efec efec | efec BAcd | efec efec | efec "E"B2cd |
   "A"efec efec | efec BAAB | cBAc "E"BAFG | "A"A4 A4 ||
|: "E"B4 B2AB | "A"cBAc BcA2 | "E"B4 B4 | "A"EFED CB,A,2 :|
|: "A"[EC][EA,][EC][EA,] "D"[FD][FA,][FD][FA,] |\
   "A"[EC][EA,][EC][EA,] "D"[FD][FA,][FD][FA,] |\
   "A"[EC][EA,][EC][EA,] "D"[FD][FA,][FD][FA,] |\
   "A"[EC][EA,][EC][EA,] "E"[E2B,2][E2A,2] |
   "A"[EC][EA,][EC][EA,] "D"[FD][FA,][FD][FA,] |\
   "A"[EC][EA,][EC][EA,] "D"[F2D2]E2 | \
   "A"EFAG A2AB | "E"cABG "A"A4 :|
N:Portland Collection, pg 92 - abc by Peter Ostapenko.
N:Play for Southern squares only.  Phrasing will not fit most contra dances.
N:Tune fiddles AEAE.
N:Last update - PO 4/1/2007.
N:A Major
